public/assets/imgs/page/homepage2/icon-advance.svg

<svg width="64" height="64" viewBox="0 0 64 64" fill="none" xmlns="http://www.w3.org/2000/svg">
<circle cx="32" cy="32" r="32" fill="#E4E7EC"/>
<g clip-path="url(#clip0_57_1337)">
<path d="M44.9913 32.1733C44.9655 34.0697 44.5216 35.9369 43.6913 37.642C43.6115 37.6412 43.5319 37.6495 43.454 37.6669C41.4847 38.2459 39.4398 38.5267 37.3873 38.5C35.1779 38.5618 32.9728 38.2692 30.8559 37.6333C30.6042 37.548 30.3777 37.4013 30.1968 37.2066C30.016 37.0118 29.8864 36.7751 29.8199 36.5178C29.7533 36.2604 29.7519 35.9906 29.8157 35.7326C29.8795 35.4746 30.0065 35.2365 30.1853 35.0398C30.5501 34.6339 30.9402 34.2515 31.3532 33.8948C31.5663 33.7232 31.8202 33.6098 32.0902 33.5656C32.3601 33.5213 32.637 33.5478 32.8937 33.6423C34.2787 34.1044 35.729 34.3407 37.1891 34.3422C39.9347 34.3139 42.6249 33.5661 44.9913 32.1733ZM35.5186 32.026C35.7641 32.0658 36.0156 32.0483 36.2532 31.9748C36.4909 31.9013 36.7083 31.7737 36.8884 31.6022C37.0686 31.4307 37.2066 31.2198 37.2916 30.986C37.3767 30.7522 37.4065 30.502 37.3787 30.2548C36.8771 26.1605 35.0248 22.3503 32.1148 19.4268C32.0041 19.3069 31.9225 19.1631 31.8764 19.0065C30.1627 19.0191 28.4686 19.373 26.8931 20.0476C28.5375 21.2744 29.9141 22.8241 30.9386 24.6015C31.9631 26.379 32.614 28.3469 32.8514 30.3848C32.8961 30.6983 33.0324 30.9917 33.2433 31.228C33.4541 31.4643 33.7301 31.633 34.0366 31.7129C34.5232 31.8498 35.0182 31.9544 35.5186 32.026ZM41.6654 31.3294C42.7664 30.9253 43.8152 30.3915 44.7898 29.7391C44.3429 27.2293 43.1691 24.906 41.4139 23.0572C39.6587 21.2084 37.3994 19.9156 34.9163 19.3391C37.4487 22.3835 39.0493 26.0938 39.5258 30.0251C39.555 30.2644 39.638 30.494 39.7686 30.6967C39.8991 30.8994 40.0739 31.0699 40.2798 31.1954C40.4856 31.3209 40.7172 31.3981 40.9572 31.4214C41.1972 31.4446 41.4393 31.4131 41.6654 31.3294ZM37.1999 40.6667C34.5316 40.7109 31.8763 40.2852 29.3555 39.4089C29.1526 39.3347 28.9365 39.3035 28.7209 39.3173C28.5053 39.331 28.2948 39.3893 28.103 39.4886C27.9111 39.5879 27.7419 39.726 27.6062 39.8941C27.4705 40.0622 27.3712 40.2567 27.3145 40.4652C27.0243 41.6084 26.8934 42.7863 26.9256 43.9654C29.5035 45.0612 32.3666 45.2939 35.0876 44.6287C37.8085 43.9635 40.2414 42.4361 42.0229 40.2745C40.4337 40.5757 38.8169 40.7072 37.1999 40.6667ZM30.6999 30.7336C30.6312 30.0944 30.5142 29.4614 30.35 28.8399C30.2791 28.5819 30.144 28.346 29.9575 28.1541C29.771 27.9622 29.539 27.8205 29.283 27.7423C29.0271 27.664 28.7556 27.6517 28.4936 27.7065C28.2317 27.7613 27.9878 27.8813 27.7847 28.0556C24.6616 30.7972 22.4347 34.4142 21.393 38.4372C21.3401 38.7388 21.3064 39.0434 21.2923 39.3493C22.2222 40.7017 23.3982 41.867 24.7589 42.7846C24.8746 40.732 25.409 38.7247 26.3291 36.8863C27.2493 35.0479 28.5358 33.4171 30.1095 32.0943C30.3118 31.9331 30.4714 31.7248 30.5744 31.4875C30.6773 31.2503 30.7204 30.9914 30.6999 30.7336ZM27.4142 23.4514C26.6297 22.5883 25.7305 21.8371 24.7416 21.2187C22.3403 22.8228 20.545 25.1846 19.6418 27.9276C18.7387 30.6706 18.7797 33.6369 19.7583 36.3539C21.1618 32.1613 23.7489 28.4647 27.2073 25.7102C27.374 25.5789 27.5123 25.4149 27.6136 25.2284C27.7149 25.0419 27.7772 24.8367 27.7965 24.6253C27.8159 24.4139 27.792 24.2008 27.7262 23.999C27.6605 23.7972 27.5543 23.6108 27.4142 23.4514Z" fill="#101828"/>
</g>
<defs>
<clipPath id="clip0_57_1337">
<rect width="26" height="26" fill="white" transform="translate(19 19)"/>
</clipPath>
</defs>
</svg>

<svg xmlns="http://www.w3.org/2000/svg" width="64" height="64" fill="none"><circle cx="32" cy="32" r="32" fill="#E4E7EC"/><g clip-path="url(#a)"><path fill="#101828" d="M44.991 32.173a12.892 12.892 0 0 1-1.3 5.469c-.08 0-.16.008-.237.025a20.56 20.56 0 0 1-6.067.833c-2.21.062-4.414-.23-6.531-.867a1.601 1.601 0 0 1-.67-2.593c.364-.406.754-.788 1.167-1.145a1.583 1.583 0 0 1 1.54-.253c1.386.462 2.836.699 4.296.7a15.7 15.7 0 0 0 7.802-2.169Zm-9.472-.147a1.613 1.613 0 0 0 1.86-1.771 18.545 18.545 0 0 0-5.264-10.828 1.061 1.061 0 0 1-.239-.42 12.901 12.901 0 0 0-4.983 1.04 15.073 15.073 0 0 1 5.958 10.338 1.607 1.607 0 0 0 1.186 1.328c.486.137.981.241 1.482.313Zm6.146-.697a14.757 14.757 0 0 0 3.125-1.59 13.02 13.02 0 0 0-9.874-10.4 20.583 20.583 0 0 1 4.61 10.686 1.597 1.597 0 0 0 2.14 1.304ZM37.2 40.667a22.743 22.743 0 0 1-7.845-1.258 1.558 1.558 0 0 0-2.04 1.056 12.805 12.805 0 0 0-.39 3.5 12.983 12.983 0 0 0 15.098-3.69 22.83 22.83 0 0 1-4.823.392Zm-6.5-9.933a12.746 12.746 0 0 0-.35-1.894 1.588 1.588 0 0 0-2.565-.784 20.728 20.728 0 0 0-6.392 10.381 7.198 7.198 0 0 0-.1.912 13.086 13.086 0 0 0 3.466 3.436 15.074 15.074 0 0 1 5.35-10.69 1.58 1.58 0 0 0 .59-1.361Zm-3.286-7.283a12.739 12.739 0 0 0-2.672-2.232 12.932 12.932 0 0 0-4.984 15.135 22.9 22.9 0 0 1 7.45-10.644 1.563 1.563 0 0 0 .206-2.259Z"/></g><defs><clipPath id="a"><path fill="#fff" d="M19 19h26v26H19z"/></clipPath></defs></svg>
